packages/match-icons/product/svg/sync.svg

<svg fill="none" height="32" viewBox="0 0 32 32" width="32" xmlns="http://www.w3.org/2000/svg" xmlns:xlink="http://www.w3.org/1999/xlink"><clipPath id="a"><path d="m0 0h32v32h-32z"/></clipPath><g clip-path="url(#a)" fill="#394762"><path d="m10 17c-.26522 0-.51957-.1054-.70711-.2929-.18753-.1875-.29289-.4419-.29289-.7071 0-1.8565.7375-3.637 2.0503-4.9497 1.3127-1.3128 3.0932-2.0503 4.9497-2.0503.2652 0 .5196.10536.7071.29289.1875.18754.2929.44189.2929.70711 0 .2652-.1054.5196-.2929.7071s-.4419.2929-.7071.2929c-1.3261 0-2.5979.5268-3.5355 1.4645-.9377.9376-1.4645 2.2094-1.4645 3.5355 0 .2652-.1054.5196-.2929.7071s-.4419.2929-.7071.2929z"/><path d="m16 23c-.2652 0-.5196-.1054-.7071-.2929s-.2929-.4419-.2929-.7071.1054-.5196.2929-.7071.4419-.2929.7071-.2929c1.3261 0 2.5979-.5268 3.5355-1.4645.9377-.9376 1.4645-2.2094 1.4645-3.5355 0-.2652.1054-.5196.2929-.7071s.4419-.2929.7071-.2929.5196.1054.7071.2929.2929.4419.2929.7071c0 1.8565-.7375 3.637-2.0503 4.9497-1.3127 1.3128-3.0932 2.0503-4.9497 2.0503z"/><path d="m8.89 3.90998c1.1358-.6919 2.3747-1.19826 3.67-1.5 3.5695-.88593 7.3438-.34418 10.52 1.51.191.11816.4161.16861.6393.14321.2231-.02539.4312-.12515.5907-.28321.1077-.10866.1891-.24059.2378-.38563.0487-.14505.0635-.29934.0432-.451s-.0751-.29664-.1602-.42378c-.0851-.12715-.1983-.23306-.3308-.30959-2.0033-1.1752-4.2367-1.904187-6.5476-2.1371729-2.3109-.2329861-4.6448.0355189-6.8424.7871769-.6888.232116-1.35769.519726-2 .859996-2.61994 1.35484-4.81765 3.40293-6.35354 5.92101-1.535881 2.51811-2.35099038 5.40951-2.35646 8.35901 0 .2652.105357.5196.292893.7071.187537.1875.441891.2929.707107.2929.26522 0 .51957-.1054.70711-.2929.18753-.1875.29289-.4419.29289-.7071.00076-2.4398.6364-4.8374 1.84443-6.95717 1.20802-2.11974 2.94685-3.88865 5.04557-5.13285z"/><path d="m26.75 4.17h-.01l-1.41 1.41v.01l-3.3 3.3h8.07v-8.080002z"/><path d="m31 15c-.2652 0-.5196.1054-.7071.2929s-.2929.4419-.2929.7071c.0502 1.5105-.1561 3.0185-.61 4.46-.9743 2.7777-2.7843 5.1859-5.1817 6.8939-2.3974 1.7081-5.2647 2.6324-8.2083 2.6461-2.4893.0055-4.9345-.6576-7.08-1.92-.19096-.1182-.41614-.1686-.63926-.1432-.22313.0254-.43121.1251-.59074.2832-.10772.1087-.18908.2406-.2378.3856-.04872.1451-.06351.2994-.04323.451.02029.1517.07511.2967.16024.4238.08513.1272.1983.2331.33079.3096 2.00334 1.1752 4.2367 1.9042 6.5476 2.1372s4.6448-.0355 6.8424-.7872c.6888-.2321 1.3577-.5197 2-.86 2.6199-1.3548 4.8177-3.4029 6.3535-5.921 1.5359-2.5181 2.351-5.4095 2.3565-8.359 0-.2652-.1054-.5196-.2929-.7071s-.4419-.2929-.7071-.2929z"/><path d="m9.96999 23.11h-8.07v8.07l3.35-3.35h.01l1.41-1.41v-.01z"/></g></svg>

<svg width="32" height="32" viewBox="0 0 32 32" fill="none" xmlns="http://www.w3.org/2000/svg">
<g clip-path="url(#clip0)">
<path d="M10 17C9.73478 17 9.48043 16.8946 9.29289 16.7071C9.10536 16.5196 9 16.2652 9 16C9 14.1435 9.7375 12.363 11.0503 11.0503C12.363 9.7375 14.1435 9 16 9C16.2652 9 16.5196 9.10536 16.7071 9.29289C16.8946 9.48043 17 9.73478 17 10C17 10.2652 16.8946 10.5196 16.7071 10.7071C16.5196 10.8946 16.2652 11 16 11C14.6739 11 13.4021 11.5268 12.4645 12.4645C11.5268 13.4021 11 14.6739 11 16C11 16.2652 10.8946 16.5196 10.7071 16.7071C10.5196 16.8946 10.2652 17 10 17Z" fill="#394762"/>
<path d="M16 23C15.7348 23 15.4804 22.8946 15.2929 22.7071C15.1054 22.5196 15 22.2652 15 22C15 21.7348 15.1054 21.4804 15.2929 21.2929C15.4804 21.1054 15.7348 21 16 21C17.3261 21 18.5979 20.4732 19.5355 19.5355C20.4732 18.5979 21 17.3261 21 16C21 15.7348 21.1054 15.4804 21.2929 15.2929C21.4804 15.1054 21.7348 15 22 15C22.2652 15 22.5196 15.1054 22.7071 15.2929C22.8946 15.4804 23 15.7348 23 16C23 17.8565 22.2625 19.637 20.9497 20.9497C19.637 22.2625 17.8565 23 16 23V23Z" fill="#394762"/>
<path d="M8.89 3.90998C10.0258 3.21808 11.2647 2.71172 12.56 2.40998C16.1295 1.52405 19.9038 2.0658 23.08 3.91998C23.271 4.03814 23.4961 4.08859 23.7193 4.06319C23.9424 4.0378 24.1505 3.93804 24.31 3.77998V3.77998C24.4177 3.67132 24.4991 3.53939 24.5478 3.39435C24.5965 3.2493 24.6113 3.09501 24.591 2.94335C24.5707 2.79169 24.5159 2.64671 24.4308 2.51957C24.3457 2.39242 24.2325 2.28651 24.1 2.20998C22.0967 1.03478 19.8633 0.305793 17.5524 0.0728071C15.2415 -0.160179 12.9076 0.108326 10.71 0.859984C10.0212 1.0921 9.35231 1.37971 8.71 1.71998C6.09006 3.07482 3.89235 5.12291 2.35646 7.64099C0.820579 10.1591 0.00546962 13.0505 0 16C0 16.2652 0.105357 16.5196 0.292893 16.7071C0.48043 16.8946 0.734784 17 1 17C1.26522 17 1.51957 16.8946 1.70711 16.7071C1.89464 16.5196 2 16.2652 2 16C2.00076 13.5602 2.6364 11.1626 3.84443 9.04283C5.05245 6.92309 6.79128 5.15418 8.89 3.90998V3.90998Z" fill="#394762"/>
<path d="M26.75 4.17H26.74L25.33 5.58V5.59L22.03 8.89H30.1V0.809998L26.75 4.17Z" fill="#394762"/>
<path d="M31 15C30.7348 15 30.4804 15.1054 30.2929 15.2929C30.1054 15.4804 30 15.7348 30 16C30.0502 17.5105 29.8439 19.0185 29.39 20.46C28.4157 23.2377 26.6057 25.6459 24.2083 27.3539C21.8109 29.062 18.9436 29.9863 16 30C13.5107 30.0055 11.0655 29.3424 8.92 28.08C8.72904 27.9618 8.50386 27.9114 8.28074 27.9368C8.05761 27.9622 7.84953 28.0619 7.69 28.22C7.58228 28.3287 7.50092 28.4606 7.4522 28.6056C7.40348 28.7507 7.38869 28.905 7.40897 29.0566C7.42926 29.2083 7.48408 29.3533 7.56921 29.4804C7.65434 29.6076 7.76751 29.7135 7.9 29.79C9.90334 30.9652 12.1367 31.6942 14.4476 31.9272C16.7585 32.1602 19.0924 31.8917 21.29 31.14C21.9788 30.9079 22.6477 30.6203 23.29 30.28C25.9099 28.9252 28.1077 26.8771 29.6435 24.359C31.1794 21.8409 31.9945 18.9495 32 16C32 15.7348 31.8946 15.4804 31.7071 15.2929C31.5196 15.1054 31.2652 15 31 15Z" fill="#394762"/>
<path d="M9.96999 23.11H1.89999V31.18L5.24999 27.83H5.25999L6.66999 26.42V26.41L9.96999 23.11Z" fill="#394762"/>
</g>
<defs>
<clipPath id="clip0">
<rect width="32" height="32" fill="white"/>
</clipPath>
</defs>
</svg>
